X: 20572
Q: "Andante"
M: C
L: 1/8
K: D
d2de dccd | BABd B>AF>A |\
d2de {d}c2cd |
d2de f2ff | g>f e/f/g f<d (3(BcA) |
(3(def) ed (dc)cd | B>ABd A>GF Ha |\
agfe d2dc | BABd BAHF B |\


